icons/svg/seamark_big/radar_reflector_additional_big_night.svg

<?xml version="1.0" encoding="UTF-8" standalone="no"?>
<svg
   xmlns:dc="http://purl.org/dc/elements/1.1/"
   xmlns:cc="http://creativecommons.org/ns#"
   xmlns:rdf="http://www.w3.org/1999/02/22-rdf-syntax-ns#"
   xmlns:svg="http://www.w3.org/2000/svg"
   xmlns="http://www.w3.org/2000/svg"
   xmlns:sodipodi="http://sodipodi.sourceforge.net/DTD/sodipodi-0.dtd"
   xmlns:inkscape="http://www.inkscape.org/namespaces/inkscape"
   width="1060"
   height="1060"
   id="svg2"
   version="1.1"
   inkscape:version="0.48.4 r9939"
   sodipodi:docname="radar_reflector_additional_big.svg">
  <defs
     id="defs13">
    <inkscape:path-effect
       effect="gears"
       id="path-effect3774"
       is_visible="true"
       teeth="6"
       phi="-1.2" />
    <inkscape:path-effect
       effect="bend_path"
       id="path-effect3772"
       is_visible="false"
       bendpath="m 95.790098,316.51174 c 144.429032,-206.42506 223.313032,-11.7428 339.548092,0"
       prop_scale="1.19"
       scale_y_rel="false"
       vertical="false"
       bendpath-nodetypes="cc" />
  </defs>
  <sodipodi:namedview
     pagecolor="#ffffff"
     bordercolor="#666666"
     borderopacity="1"
     objecttolerance="10"
     gridtolerance="10"
     guidetolerance="10"
     inkscape:pageopacity="0"
     inkscape:pageshadow="2"
     inkscape:window-width="1920"
     inkscape:window-height="1004"
     id="namedview11"
     showgrid="false"
     inkscape:zoom="0.57543862"
     inkscape:cx="709.19646"
     inkscape:cy="584.37129"
     inkscape:window-x="1680"
     inkscape:window-y="0"
     inkscape:window-maximized="1"
     inkscape:current-layer="svg2"
     inkscape:snap-smooth-nodes="true"
     inkscape:object-paths="true"
     inkscape:object-nodes="true" />
  <metadata
     id="metadata2975">image/svg+xmlen<rdf:RDF>
  <cc:Work
     rdf:about="">
    <dc:format>image/svg+xml</dc:format>
    <dc:type
       rdf:resource="http://purl.org/dc/dcmitype/StillImage" />
    <dc:title></dc:title>
  </cc:Work>
</rdf:RDF>
</metadata>
  <path
     style="font-size:medium;font-style:normal;font-variant:normal;font-weight:normal;font-stretch:normal;text-indent:0;text-align:start;text-decoration:none;line-height:normal;letter-spacing:normal;word-spacing:normal;text-transform:none;direction:ltr;block-progression:tb;writing-mode:lr-tb;text-anchor:start;baseline-shift:baseline;color:#000000;fill:#e0e0e0;fill-opacity:1;stroke:none;stroke-width:1;marker:none;visibility:visible;display:inline;overflow:visible;enable-background:accumulate;font-family:Sans;-inkscape-font-specification:Sans;opacity:0.83043482000000002;fill-rule:nonzero"
     d="M 696.5625,310 646.75,410.96875 c 9.17747,4.06001 18.11186,8.54949 26.84375,13.375 L 723.3125,323.5625 C 720.6787,304.44518 709.84363,304.36737 696.5625,310 z"
     id="path3868"
     inkscape:connector-curvature="0"
     sodipodi:nodetypes="ccccc" />
  <path
     style="font-size:medium;font-style:normal;font-variant:normal;font-weight:normal;font-stretch:normal;text-indent:0;text-align:start;text-decoration:none;line-height:normal;letter-spacing:normal;word-spacing:normal;text-transform:none;direction:ltr;block-progression:tb;writing-mode:lr-tb;text-anchor:start;baseline-shift:baseline;color:#000000;fill:#e0e0e0;fill-opacity:1;stroke:none;stroke-width:1;marker:none;visibility:visible;display:inline;overflow:visible;enable-background:accumulate;font-family:Sans;-inkscape-font-specification:Sans;opacity:0.83043482000000002;fill-rule:nonzero"
     d="m 939.125,581.03125 c 8.55305,-12.19492 3.42556,-25.73691 -10.03125,-27.40625 l -105.0625,38.71875 c 3.82036,9.19192 10.28125,28.15625 10.28125,28.15625 0,0 27.29522,-10.05713 104.8125,-39.46875 z"
     id="path3870"
     inkscape:connector-curvature="0"
     sodipodi:nodetypes="ccccc" />
  <path
     style="font-size:medium;font-style:normal;font-variant:normal;font-weight:normal;font-stretch:normal;text-indent:0;text-align:start;text-decoration:none;line-height:normal;letter-spacing:normal;word-spacing:normal;text-transform:none;direction:ltr;block-progression:tb;writing-mode:lr-tb;text-anchor:start;baseline-shift:baseline;color:#000000;fill:#e0e0e0;fill-opacity:1;stroke:none;stroke-width:1;marker:none;visibility:visible;display:inline;overflow:visible;enable-background:accumulate;font-family:Sans;-inkscape-font-specification:Sans;opacity:0.83043482000000002;fill-rule:nonzero"
     d="m 794.03125,371.03125 -73.1875,84.78125 c 7.83882,6.22488 15.39898,12.80967 22.65625,19.6875 l 73.21875,-84.84375 c 0.1912,-15.77464 -7.37807,-22.30117 -22.6875,-19.625 z"
     id="path3870-3"
     inkscape:connector-curvature="0"
     sodipodi:nodetypes="ccccc" />
  <path
     style="font-size:medium;font-style:normal;font-variant:normal;font-weight:normal;font-stretch:normal;text-indent:0;text-align:start;text-decoration:none;line-height:normal;letter-spacing:normal;word-spacing:normal;text-transform:none;direction:ltr;block-progression:tb;writing-mode:lr-tb;text-anchor:start;baseline-shift:baseline;color:#000000;fill:#e0e0e0;fill-opacity:1;stroke:none;stroke-width:1;marker:none;visibility:visible;display:inline;overflow:visible;enable-background:accumulate;font-family:Sans;-inkscape-font-specification:Sans;opacity:0.83043482000000002;fill-rule:nonzero"
     d="m 873.78125,454.5625 -92.21875,63.59375 c 6.00697,7.97613 11.66732,16.22131 16.96875,24.71875 l 92.25,-63.59375 c 5.9268,-20.89433 -5.43736,-22.87208 -17,-24.71875 z"
     id="path3870-2"
     inkscape:connector-curvature="0"
     sodipodi:nodetypes="ccccc" />
  <path
     style="font-size:medium;font-style:normal;font-variant:normal;font-weight:normal;font-stretch:normal;text-indent:0;text-align:start;text-decoration:none;line-height:normal;letter-spacing:normal;word-spacing:normal;text-transform:none;direction:ltr;block-progression:tb;writing-mode:lr-tb;text-anchor:start;baseline-shift:baseline;color:#000000;fill:#fafafa;fill-opacity:1;stroke:none;stroke-width:1;marker:none;visibility:visible;display:inline;overflow:visible;enable-background:accumulate;font-family:Sans;-inkscape-font-specification:Sans;opacity:1;fill-rule:nonzero"
     d="M 646.75,410.96875 C 742.37003,457.073 802.95082,525.55867 834.3125,620.5 c 17.33357,-6.52722 13.32978,-5.01953 27.29522,-10.05713 C 829.56854,509.42888 755.19801,427.86684 659.4375,385.1875 c -5.2458,10.69711 -8.63165,16.34933 -12.6875,25.78125 z"
     id="path3848"
     inkscape:connector-curvature="0"
     sodipodi:nodetypes="ccccc" />
</svg>

<svg width="1060" height="1060" viewBox="0 0 1060 1060" fill="none" xmlns="http://www.w3.org/2000/svg">
<path opacity="0.830435" d="M696.562 310L646.75 410.969C655.927 415.029 664.862 419.518 673.594 424.344L723.312 323.563C720.679 304.445 709.844 304.367 696.562 310Z" fill="#E0E0E0"/>
<path opacity="0.830435" d="M939.125 581.031C947.678 568.836 942.551 555.294 929.094 553.625L824.031 592.344C827.852 601.536 834.312 620.5 834.312 620.5C834.312 620.5 861.608 610.443 939.125 581.031Z" fill="#E0E0E0"/>
<path opacity="0.830435" d="M794.031 371.031L720.844 455.813C728.683 462.037 736.243 468.622 743.5 475.5L816.719 390.656C816.91 374.882 809.341 368.355 794.031 371.031Z" fill="#E0E0E0"/>
<path opacity="0.830435" d="M873.781 454.562L781.562 518.156C787.569 526.132 793.23 534.378 798.531 542.875L890.781 479.281C896.708 458.387 885.344 456.409 873.781 454.562Z" fill="#E0E0E0"/>
<path d="M646.75 410.969C742.37 457.073 802.951 525.559 834.312 620.5C851.646 613.973 847.642 615.48 861.608 610.443C829.569 509.429 755.198 427.867 659.438 385.188C654.192 395.885 650.806 401.537 646.75 410.969Z" fill="#FAFAFA"/>
</svg>
